src/img/icons/copy.svg

<?xml version="1.0" encoding="UTF-8"?>
<svg width="12px" height="14px" viewBox="0 0 12 14" version="1.1" xmlns="http://www.w3.org/2000/svg" xmlns:xlink="http://www.w3.org/1999/xlink">
    <!-- Generator: Sketch 50 (54983) - http://www.bohemiancoding.com/sketch -->
    <title>copy</title>
    <desc>Created with Sketch.</desc>
    <defs></defs>
    <g id="Welcome" stroke="none" stroke-width="1" fill="none" fill-rule="evenodd">
        <g id="2-2-profile" transform="translate(-1143.000000, -656.000000)" fill="#FFFFFF">
            <g id="Group-6" transform="translate(-39.000000, -8.000000)">
                <g id="Group-5" transform="translate(248.000000, 233.000000)">
                    <g id="Group-4" transform="translate(681.000000, 417.000000)">
                        <g id="Group-2" transform="translate(163.000000, 0.000000)">
                            <g id="copy" transform="translate(90.000000, 14.000000)">
                                <g id="copy-two-paper-sheets-interface-symbol">
                                    <path d="M8.99929527,0 C8.9462447,0 3.86482219,0 3.86482219,0 C2.95943883,0 2.15334421,0.8485 2.15334421,1.74858 L1.65872104,1.76038 C0.753768352,1.76038 0.0139771615,2.59706 0.0139771615,3.49714 L0.0139771615,12.24 C0.0139771615,13.14008 0.820091354,13.98856 1.72547471,13.98856 L8.14355628,13.98856 C9.04892007,13.98856 9.85503426,13.14008 9.85503426,12.24 L10.2829038,12.24 C11.1882871,12.24 11.9944013,11.39152 11.9944013,10.49144 L11.9944013,3.50764 L8.99929527,0 Z M8.14355628,13.1143 L1.72547471,13.1143 C1.27620881,13.1143 0.869735726,12.68548 0.869735726,12.24 L0.869735726,3.49714 C0.869735726,3.0517 1.23556933,2.63728 1.68483524,2.63728 L2.15334421,2.62286 L2.15334421,10.49144 C2.15334421,11.39152 2.95943883,12.24 3.86482219,12.24 L8.99929527,12.24 C8.99929527,12.68546 8.59280261,13.1143 8.14355628,13.1143 Z M11.1386623,10.49144 C11.1386623,10.93686 10.7321697,11.3657 10.2829038,11.3657 L3.86482219,11.3657 C3.41555628,11.3657 3.0090832,10.93688 3.0090832,10.49144 L3.0090832,1.74858 C3.0090832,1.30314 3.41555628,0.8743 3.86482219,0.8743 L8.14355628,0.8743 C8.13668515,1.88104 8.14355628,2.6338 8.14355628,2.6338 C8.14355628,3.54218 8.94366069,4.37144 9.85503426,4.37144 C9.85503426,4.37144 10.3094486,4.37144 11.1386623,4.37144 L11.1386623,10.49144 Z M9.85503426,3.49714 C9.39936705,3.49714 8.99929527,2.65128 8.99929527,2.19752 C8.99929527,2.19752 8.99929527,1.73764 8.99929527,0.88784 L8.99929527,0.88696 L11.1386623,3.49714 L9.85503426,3.49714 Z M8.99929527,6.12788 L5.14845024,6.12788 C4.91226754,6.12788 4.72058075,6.32328 4.72058075,6.56458 C4.72058075,6.80588 4.91226754,7.00128 5.14845024,7.00128 L8.99929527,7.00128 C9.23547798,7.00128 9.42716476,6.80586 9.42716476,6.56458 C9.42716476,6.32328 9.23547798,6.12788 8.99929527,6.12788 Z M8.99929527,8.3114 L5.14845024,8.3114 C4.91226754,8.3114 4.72058075,8.5068 4.72058075,8.74808 C4.72058075,8.9894 4.91226754,9.1848 5.14845024,9.1848 L8.99929527,9.1848 C9.23547798,9.1848 9.42716476,8.9894 9.42716476,8.74808 C9.42716476,8.5068 9.23547798,8.3114 8.99929527,8.3114 Z" id="Shape" fill-rule="nonzero"></path>
                                </g>
                            </g>
                        </g>
                    </g>
                </g>
            </g>
        </g>
    </g>
</svg>

<svg width="12" height="14" xmlns="http://www.w3.org/2000/svg"><path d="M9 0H3.864c-.906 0-1.712.849-1.712 1.749l-.494.011c-.905 0-1.645.837-1.645 1.737v8.743c0 .9.806 1.749 1.711 1.749h6.419c.905 0 1.711-.849 1.711-1.749h.428c.905 0 1.711-.848 1.711-1.749V3.508L9 0zm-.856 13.114H1.725c-.449 0-.855-.429-.855-.874V3.497c0-.445.366-.86.815-.86l.468-.014v7.868c0 .9.806 1.749 1.712 1.749h5.134c0 .445-.406.874-.855.874zm2.995-2.623c0 .446-.407.875-.856.875H3.865c-.45 0-.856-.43-.856-.875V1.75c0-.446.407-.875.856-.875h4.279c-.007 1.007 0 1.76 0 1.76 0 .908.8 1.737 1.711 1.737h1.284v6.12zM9.855 3.497c-.456 0-.856-.846-.856-1.3V.888l2.14 2.61H9.855zm-.856 2.63H5.15a.432.432 0 00-.428.438c0 .24.191.436.427.436H9a.432.432 0 00.428-.436A.432.432 0 009 6.128zm0 2.184H5.15a.432.432 0 00-.428.437c0 .241.191.437.427.437H9a.432.432 0 00.428-.437A.432.432 0 009 8.311z" fill="#FFF"/></svg>
